X: 21401
T: MILFORD SETT (tune 1)
C:
%R: reel
B: Elias Howe "The Musician's Companion" 1843 p.140 #1
S: http://imslp.org/wiki/The_Musician's_Companion_(Howe,_Elias)
Z: 2015 John Chambers <jc:trillian.mit.edu>
M: 2/4
L: 1/16
K: D
% - - - - - - - - - - - - - - - - - - - - - - - - - - - - -
V: 1 name="1"
A2 |\
(fef)e d2f2 | A2de f2g2 | "_>"b4 (a2e2) | "_>"b4 (a2e2) |\
fefe d2f2 | A2de f2a2 | bbb2 dcBc | d4 z2 H|]
A2 |\
(AB).c.d (ef).g.f | e3dc3B | (B2A2) .F2.D2 | B2A2 c2d2 |\
(AB).c.d (ef).g.f | edcB A2Bc | dcdf e2a2 | d4 "^D.C."z2 |]
f2 |\
f2g2 f2b2 | f4 g2f2 | e2d2c2e2 | d2c2B2f2 |\
f2g2 f2b2 | g4 gfed | c2B2 ^ABcA | "^D.C."B6 |]
% - - - - - - - - - - Dance description - - - - - - - - - -
%%begintext align
%% First four chassa across and back,
%% balance four,
%% turn partners,
%% ladies chain,
%% promenade four,
%% sides the same.
%%endtext
% - - - - - - - - - - - - - - - - - - - - - - - - - - - - -
%%sep 1 1 300

%%sep 1 1 500

